X:1
T:H\aarga Dur (Hambo)
C:efter Andrea Hoag
R:Hambo
%O:Sweden
Z:Bob Wyttenbach  8/5/02, from Fiddles & Feet 2002 tunebook, "Printed by Karen Myers"
M:3/4
L:1/8
K:B %Transposed from A
V:1
P:A
f2(fg) fe|(ed)d2Bd|(dc) (cF) Ac|[1"3" (BA) (Bc) de:|[2"4 "B2"Fine"B4|]
V:2
d2(de) dc|(cB)B2FB|(BA) (AF) CF|[1(DC) (DF) Bc:|[2D2D4|]
V:1
P:B
(de)f2(d2|ef)g4|a2ag/a/ bg|[1(gf)f4:|[2(gf)f4:|
V:2
(Bc)d2(B2|cd)e4|c2c>f fe|[1(ec)d4:|[2e[Fc][F4c4]:|
